X:1
T:5
L:1/8
Q:1/4=100
M:2/2
K:Amin
V:1 treble nm="Piano" snm="Pno."
V:1
!p!"^Moderato" C4 E4 | G4 c4 | A4 c4 | G4 z4 | c4 e4 | d4 B4 | A4 d4 | B4 z4 | G4 c4 | A4 F4 | %10
 d4 B4 | G4 z4 | A4 c4 | d4 c4 | B4 G4 | c4 z4 |] %16

